src/assets/svg/ic_iw_active_circle_phone_conf.svg

<svg xmlns="http://www.w3.org/2000/svg" width="16" height="16">
    <path d="M8 1.101a6.9 6.9 0 10.001 13.801A6.9 6.9 0 008 1.101zm3.401 10.869l-.312.349c-.361.363-.834.618-1.243.684-1.013.162-2.956-.434-4.651-2.129l-.008-.01a.07.07 0 00-.009-.007c-1.696-1.696-2.29-3.638-2.127-4.652.064-.409.32-.881.682-1.244l.311-.349a.5.5 0 01.706-.017l1.38 1.379a.502.502 0 01-.016.707l-.196.196-.119.118-.155.151c-.533.534-.553 1.376-.046 1.885l1.148 1.148.231.229c.509.507 1.351.487 1.884-.044l.275-.271.195-.194a.505.505 0 01.706-.018l1.379 1.38a.503.503 0 01-.015.709zm1.453-3.583l-.216.241c-.252.252-.579.429-.863.473-.702.114-2.052-.298-3.228-1.476l-.005-.008c-.002-.001-.005-.002-.006-.005-1.177-1.177-1.59-2.524-1.478-3.229.045-.282.223-.61.474-.861l.217-.242a.344.344 0 01.489-.013l.957.957a.347.347 0 01-.011.49l-.135.137-.083.083-.108.105c-.369.368-.383.954-.031 1.308l.798.798.159.158c.354.352.938.339 1.308-.031l.191-.188.135-.135a.351.351 0 01.491-.013l.955.958a.35.35 0 01-.01.493z" fill="#3d464d"/>
</svg>

<?xml version="1.0" encoding="iso-8859-1"?>
<!-- Generator: Adobe Illustrator 16.0.4, SVG Export Plug-In . SVG Version: 6.00 Build 0)  -->
<!DOCTYPE svg PUBLIC "-//W3C//DTD SVG 1.1//EN" "http://www.w3.org/Graphics/SVG/1.1/DTD/svg11.dtd">
<svg version="1.1" id="artwork" xmlns="http://www.w3.org/2000/svg" xmlns:xlink="http://www.w3.org/1999/xlink" x="0px" y="0px"
	 width="16px" height="16px" viewBox="0 0 16 16" style="enable-background:new 0 0 16 16;" xml:space="preserve">
<g>
	<path style="fill:#3D464D;" d="M8,1.101c-3.811,0-6.9,3.09-6.9,6.901c0,3.81,3.089,6.898,6.9,6.898c3.811,0,6.9-3.089,6.9-6.898
		C14.9,4.19,11.811,1.101,8,1.101z M11.401,11.97l-0.312,0.349c-0.361,0.363-0.834,0.618-1.243,0.684
		c-1.013,0.162-2.956-0.434-4.651-2.129c-0.003-0.004-0.006-0.007-0.008-0.01c-0.002-0.002-0.006-0.005-0.009-0.007
		C3.482,9.161,2.888,7.219,3.051,6.205c0.064-0.409,0.32-0.881,0.682-1.244l0.311-0.349c0.201-0.2,0.516-0.206,0.706-0.017
		l1.38,1.379c0.189,0.191,0.184,0.507-0.016,0.707L5.918,6.877L5.799,6.995L5.644,7.146C5.111,7.68,5.091,8.522,5.598,9.031
		l1.148,1.148l0.231,0.229c0.509,0.507,1.351,0.487,1.884-0.044l0.275-0.271l0.195-0.194c0.198-0.197,0.515-0.205,0.706-0.018
		l1.379,1.38C11.607,11.453,11.6,11.77,11.401,11.97z M12.854,8.387l-0.216,0.241c-0.252,0.252-0.579,0.429-0.863,0.473
		c-0.702,0.114-2.052-0.298-3.228-1.476C8.546,7.622,8.543,7.619,8.542,7.617C8.54,7.616,8.537,7.615,8.536,7.612
		c-1.177-1.177-1.59-2.524-1.478-3.229c0.045-0.282,0.223-0.61,0.474-0.861L7.749,3.28c0.138-0.14,0.357-0.145,0.489-0.013
		l0.957,0.957c0.131,0.133,0.128,0.352-0.011,0.49L9.049,4.851L8.966,4.934L8.858,5.039C8.489,5.407,8.475,5.993,8.827,6.347
		l0.798,0.798l0.159,0.158c0.354,0.352,0.938,0.339,1.308-0.031l0.191-0.188l0.135-0.135c0.137-0.137,0.357-0.143,0.491-0.013
		l0.955,0.958C12.998,8.026,12.992,8.247,12.854,8.387z"/>
</g>
</svg>
